src/assets/svg/close.svg

<?xml version="1.0" encoding="UTF-8"?>
<svg width="24px" height="24px" viewBox="0 0 24 24" version="1.1" xmlns="http://www.w3.org/2000/svg" xmlns:xlink="http://www.w3.org/1999/xlink">
    <title>6cb11812-f1c4-4dee-b65a-fbc73e2636d2@1.00x</title>
    <g id="Iconography" stroke="none" stroke-width="1" fill="none" fill-rule="evenodd">
        <g id="1.-Primitives/Icons/1.-Foreground-Primary/Close" fill="#173145">
            <path d="M23.3137085,0.686291501 C23.6763382,1.0489212 23.7022403,1.62076659 23.3914149,2.01328425 L23.3137085,2.10050506 L13.4143983,11.9993983 L23.3137085,21.8994949 C23.7042328,22.2900192 23.7042328,22.9231842 23.3137085,23.3137085 C22.9510788,23.6763382 22.3792334,23.7022403 21.9867157,23.3914149 L21.8994949,23.3137085 L11.9993983,13.4143983 L2.10050506,23.3137085 C1.70998077,23.7042328 1.07681579,23.7042328 0.686291501,23.3137085 C0.323661802,22.9510788 0.29775968,22.3792334 0.608585137,21.9867157 L0.686291501,21.8994949 L10.5853983,11.9993983 L0.686291501,2.10050506 C0.295767209,1.70998077 0.295767209,1.07681579 0.686291501,0.686291501 C1.0489212,0.323661802 1.62076659,0.29775968 2.01328425,0.608585137 L2.10050506,0.686291501 L11.9993983,10.5853983 L21.8994949,0.686291501 C22.2900192,0.295767209 22.9231842,0.295767209 23.3137085,0.686291501 Z" id="Path"></path>
        </g>
    </g>
</svg>

<svg width="24" height="24" xmlns="http://www.w3.org/2000/svg"><path d="M23.314.686a1 1 0 01.077 1.327l-.077.088-9.9 9.898 9.9 9.9a1 1 0 01-1.327 1.492l-.088-.077-9.9-9.9-9.898 9.9a1 1 0 01-1.492-1.327l.077-.088 9.9-9.9-9.9-9.898A1 1 0 012.013.609l.088.077 9.898 9.9 9.9-9.9a1 1 0 011.415 0z"/></svg>
